X: 35562
T: Rusty Gulley, The
R: three-two
M: 3/2
K: Amajor
M:3/4
a2 ga f2|ge eb ge|da ca Ba|cA Ac BA:|
|:A/B/c/d/ eA cA|=GB Bd cB|A/B/c/d/ eA cA|EA Ac BA:|

